germany/municipalities/07232255.svg

<?xml version="1.0" encoding="UTF-8" standalone="no"?>
<!-- Created with Inkscape (http://www.inkscape.org/) -->

<svg
   xmlns:dc="http://purl.org/dc/elements/1.1/"
   xmlns:cc="http://creativecommons.org/ns#"
   xmlns:rdf="http://www.w3.org/1999/02/22-rdf-syntax-ns#"
   xmlns:svg="http://www.w3.org/2000/svg"
   xmlns="http://www.w3.org/2000/svg"
   xmlns:sodipodi="http://sodipodi.sourceforge.net/DTD/sodipodi-0.dtd"
   xmlns:inkscape="http://www.inkscape.org/namespaces/inkscape"
   width="184.90762mm"
   height="209.1171mm"
   viewBox="0 0 184.90762 209.11709"
   version="1.1"
   id="svg8431"
   inkscape:version="0.92.4 (5da689c313, 2019-01-14)"
   sodipodi:docname="DEU Lascheid COA.svg">
  <defs
     id="defs8425" />
  <sodipodi:namedview
     id="base"
     pagecolor="#ffffff"
     bordercolor="#666666"
     borderopacity="1.0"
     inkscape:pageopacity="0.0"
     inkscape:pageshadow="2"
     inkscape:zoom="0.69335155"
     inkscape:cx="349.43174"
     inkscape:cy="395.1819"
     inkscape:document-units="mm"
     inkscape:current-layer="layer1"
     showgrid="false"
     inkscape:window-width="1366"
     inkscape:window-height="745"
     inkscape:window-x="-8"
     inkscape:window-y="-8"
     inkscape:window-maximized="1"
     fit-margin-top="0"
     fit-margin-left="0"
     fit-margin-right="0"
     fit-margin-bottom="0"
     inkscape:snap-midpoints="true"
     inkscape:snap-smooth-nodes="true"
     inkscape:snap-nodes="false" />
  <metadata
     id="metadata8428">
    <rdf:RDF>
      <cc:Work
         rdf:about="">
        <dc:format>image/svg+xml</dc:format>
        <dc:type
           rdf:resource="http://purl.org/dc/dcmitype/StillImage" />
        <dc:title></dc:title>
      </cc:Work>
    </rdf:RDF>
  </metadata>
  <g
     inkscape:label="Ebene 1"
     inkscape:groupmode="layer"
     id="layer1"
     transform="translate(-6.8616492,-6.5910371)">
    <path
       style="fill:#0033ff;fill-opacity:1;fill-rule:evenodd;stroke:none;stroke-width:2.8631711;stroke-linecap:round;stroke-linejoin:miter;stroke-miterlimit:4;stroke-dasharray:none;stroke-opacity:1"
       inkscape:connector-curvature="0"
       d="M 190.31407,8.046248 189.89801,125.6084 c -2.0256,49.45161 -42.04736,88.61684 -90.58255,88.64453 C 50.823926,214.19223 10.787186,175.01295 8.7329056,125.6084 L 8.3168556,8.046248 H 99.313283 Z"
       id="path10563-0-6-8-9"
       sodipodi:nodetypes="ccccccc" />
    <path
       style="fill:#ffffff;fill-opacity:1;stroke:#000000;stroke-width:11;stroke-linecap:round;stroke-linejoin:round;stroke-miterlimit:4;stroke-dasharray:none;stroke-opacity:1"
       d="M 5.5 5.5 L 6.6953125 343.32812 L 344.58789 343.32812 C 347.26656 343.32812 349.42383 341.17086 349.42383 338.49219 L 349.42383 10.335938 C 349.42383 7.6572694 347.26656 5.5 344.58789 5.5 L 5.5 5.5 z M 357.99219 344.57227 C 353.9351 344.57227 350.66797 347.83939 350.66797 351.89648 L 350.66797 784.85547 C 533.55031 784.08748 684.15243 636.31328 691.79102 449.83008 L 692.16406 344.57227 L 357.99219 344.57227 z "
       id="rect5647"
       transform="matrix(0.26458333,0,0,0.26458333,6.8616492,6.5910371)" />
    <path
       style="fill:#0033ff;fill-opacity:1;stroke:#000000;stroke-width:5;stroke-linecap:round;stroke-linejoin:round;stroke-miterlimit:4;stroke-dasharray:none;stroke-opacity:1"
       d="M 350.66797 435.3457 L 350.66797 522.91406 L 681.16211 522.91406 C 687.12347 499.43356 690.76064 474.98507 691.79102 449.83008 L 691.8418 435.3457 L 350.66797 435.3457 z M 350.66797 610.48047 L 350.66797 698.04883 L 575.14062 698.04883 C 603.08453 673.05243 627.03179 643.48828 645.84961 610.48047 L 350.66797 610.48047 z "
       transform="matrix(0.26458333,0,0,0.26458333,6.8616492,6.5910371)"
       id="rect5850" />
    <path
       style="fill:#ff0000;fill-opacity:1;stroke:#000000;stroke-width:5;stroke-linecap:round;stroke-linejoin:round;stroke-miterlimit:4;stroke-dasharray:none;stroke-opacity:1"
       d="M 139.43555 5.5 L 139.43555 138.80664 L 5.9726562 138.80664 L 6.2246094 210.02148 L 139.43555 210.02148 L 139.43555 343.32812 L 210.65234 343.32812 L 210.65234 210.02148 L 350.66797 210.02148 L 350.66797 138.80664 L 210.65234 138.80664 L 210.65234 5.5 L 139.43555 5.5 z "
       transform="matrix(0.26458333,0,0,0.26458333,6.8616492,6.5910371)"
       id="rect5681-9" />
    <path
       style="fill:none;fill-rule:evenodd;stroke:#000000;stroke-width:2.9104166;stroke-linecap:round;stroke-linejoin:round;stroke-miterlimit:4;stroke-dasharray:none;stroke-opacity:1"
       inkscape:connector-curvature="0"
       d="M 190.31407,8.0462454 189.89801,125.6084 c -2.0256,49.45161 -42.04736,88.61684 -90.582552,88.64453 C 50.823926,214.19223 10.787187,175.01295 8.732907,125.6084 L 8.316857,8.0462454 H 99.31328 Z"
       id="path10563-0-6-8"
       sodipodi:nodetypes="ccccccc" />
    <path
       inkscape:connector-curvature="0"
       style="fill:none;fill-opacity:1;stroke:#000000;stroke-width:2.91041667;stroke-linecap:round;stroke-linejoin:round;stroke-miterlimit:4;stroke-dasharray:none;stroke-opacity:1"
       d="M 8.3168573,8.0462457 8.6331171,97.429937 H 98.033862 c 0.708731,0 1.279509,-0.570776 1.279509,-1.279507 V 9.3257547 c 0,-0.708731 -0.570778,-1.279509 -1.279509,-1.279509 z M 101.58042,97.759118 c -1.07344,0 -1.93787,0.864425 -1.93787,1.937864 V 214.25071 c 48.38762,-0.20319 88.23443,-39.30178 90.25547,-88.64213 l 0.0987,-27.849462 z"
       id="rect5647-8" />
    <path
       style="fill:#ffffff;fill-opacity:1;stroke:#000000;stroke-width:0.79374999;stroke-linecap:round;stroke-linejoin:round;stroke-miterlimit:4;stroke-dasharray:none;stroke-opacity:1"
       d="m 57.655925,110.04053 c -3.698362,0 -6.676078,2.97772 -6.676078,6.67608 v 9.21856 c -1.512816,0.7985 -3.096873,1.57866 -4.300513,2.0345 -3.67723,1.39265 -8.189143,0.65549 -11.444261,2.86133 -2.79001,1.89064 -5.336323,4.88099 -5.912818,8.20156 -1.177161,6.78036 2.678006,13.66463 5.72213,19.83652 4.263612,8.64437 10.380371,16.42391 17.165878,23.26938 1.598427,1.61255 3.175138,4.09179 5.445662,4.09174 2.270387,-6e-5 3.846841,-2.47927 5.445146,-4.09174 6.785473,-6.84564 12.902779,-14.6249 17.166394,-23.26938 3.044074,-6.17186 6.898847,-13.05623 5.721615,-19.83652 -0.576535,-3.32057 -3.122819,-6.31092 -5.912819,-8.20156 -3.255118,-2.20584 -7.766515,-1.46868 -11.443745,-2.86133 -1.203748,-0.45589 -2.788089,-1.23592 -4.301029,-2.0345 v -9.21856 c 0,-3.69836 -2.9772,-6.67608 -6.675562,-6.67608 z"
       id="rect5914"
       inkscape:connector-curvature="0"
       sodipodi:nodetypes="sscscaaaaaaasscss" />
    <path
       style="fill:#ffffff;fill-opacity:1;stroke:#000000;stroke-width:0.79374999;stroke-linecap:round;stroke-linejoin:round;stroke-miterlimit:4;stroke-dasharray:none;stroke-opacity:1"
       d="m 118.85192,29.056189 c -2.06935,2.06935 -2.06935,5.401023 10e-6,7.470385 l 8.40985,8.409854 -18.31205,2.426319 12.54883,12.548827 18.31168,-2.426684 12.26381,12.263807 -18.31205,2.42632 12.54883,12.548826 18.31168,-2.426686 2.52168,2.521679 c 2.06936,2.069361 5.40103,2.069358 7.47038,7e-6 l 3.34421,-3.344209 c 2.06937,-2.06937 2.06937,-5.401041 1e-5,-7.470403 l -2.52168,-2.521678 2.42667,-18.311663 -12.54882,-12.548826 -2.42631,18.312029 -12.2638,-12.263807 2.42666,-18.311665 -12.54882,-12.548827 -2.4263,18.31203 -8.40986,-8.409855 c -2.06936,-2.069362 -5.40103,-2.06936 -7.4704,10e-6 z"
       id="rect5965"
       inkscape:connector-curvature="0" />
  </g>
</svg>

<svg xmlns="http://www.w3.org/2000/svg" width="698.863" height="790.364" viewBox="0 0 184.908 209.117"><path style="fill:#03f;fill-opacity:1;fill-rule:evenodd;stroke:none;stroke-width:2.8631711;stroke-linecap:round;stroke-linejoin:miter;stroke-miterlimit:4;stroke-dasharray:none;stroke-opacity:1" d="m190.314 8.046-.416 117.562c-2.026 49.452-42.047 88.617-90.583 88.645-48.491-.06-88.528-39.24-90.582-88.645L8.317 8.046h90.996z" transform="translate(-6.862 -6.591)"/><path style="fill:#fff;fill-opacity:1;stroke:#000;stroke-width:11;stroke-linecap:round;stroke-linejoin:round;stroke-miterlimit:4;stroke-dasharray:none;stroke-opacity:1" d="m5.5 5.5 1.195 337.828h337.893a4.826 4.826 0 0 0 4.836-4.836V10.336a4.826 4.826 0 0 0-4.836-4.836H5.5zm352.492 339.072a7.309 7.309 0 0 0-7.324 7.324v432.96c182.882-.769 333.484-148.543 341.123-335.026l.373-105.258H357.992z" transform="scale(.26458)"/><path style="fill:#03f;fill-opacity:1;stroke:#000;stroke-width:5;stroke-linecap:round;stroke-linejoin:round;stroke-miterlimit:4;stroke-dasharray:none;stroke-opacity:1" d="M350.668 435.346v87.568h330.494c5.961-23.48 9.599-47.929 10.629-73.084l.05-14.484H350.669zm0 175.134v87.569h224.473c27.944-24.997 51.89-54.56 70.709-87.569H350.668z" transform="scale(.26458)"/><path style="fill:red;fill-opacity:1;stroke:#000;stroke-width:5;stroke-linecap:round;stroke-linejoin:round;stroke-miterlimit:4;stroke-dasharray:none;stroke-opacity:1" d="M139.436 5.5v133.307H5.973l.252 71.214h133.21v133.307h71.217V210.021h140.016v-71.214H210.652V5.5h-71.216z" transform="scale(.26458)"/><path style="fill:none;fill-rule:evenodd;stroke:#000;stroke-width:2.9104166;stroke-linecap:round;stroke-linejoin:round;stroke-miterlimit:4;stroke-dasharray:none;stroke-opacity:1" d="m190.314 8.046-.416 117.562c-2.026 49.452-42.047 88.617-90.583 88.645-48.491-.06-88.528-39.24-90.582-88.645L8.317 8.046h90.996z" transform="translate(-6.862 -6.591)"/><path style="fill:none;fill-opacity:1;stroke:#000;stroke-width:2.91041667;stroke-linecap:round;stroke-linejoin:round;stroke-miterlimit:4;stroke-dasharray:none;stroke-opacity:1" d="m8.317 8.046.316 89.384h89.4c.71 0 1.28-.57 1.28-1.28V9.326c0-.709-.57-1.28-1.28-1.28zM101.58 97.76a1.934 1.934 0 0 0-1.937 1.938v114.554c48.387-.203 88.234-39.302 90.255-88.642l.099-27.85z" transform="translate(-6.862 -6.591)"/><path style="fill:#fff;fill-opacity:1;stroke:#000;stroke-width:.79374999;stroke-linecap:round;stroke-linejoin:round;stroke-miterlimit:4;stroke-dasharray:none;stroke-opacity:1" d="M57.656 110.04a6.662 6.662 0 0 0-6.676 6.677v9.218c-1.513.799-3.097 1.579-4.3 2.035-3.678 1.392-8.19.655-11.445 2.861-2.79 1.89-5.336 4.881-5.913 8.202-1.177 6.78 2.678 13.664 5.722 19.836 4.264 8.644 10.38 16.424 17.166 23.27 1.599 1.612 3.175 4.091 5.446 4.091 2.27 0 3.847-2.48 5.445-4.092 6.786-6.845 12.903-14.624 17.166-23.269 3.045-6.172 6.9-13.056 5.722-19.836-.576-3.321-3.123-6.311-5.913-8.202-3.255-2.206-7.766-1.469-11.443-2.861-1.204-.456-2.789-1.236-4.302-2.035v-9.218a6.661 6.661 0 0 0-6.675-6.676zM118.852 29.056a5.27 5.27 0 0 0 0 7.47l8.41 8.41-18.312 2.427 12.549 12.549 18.311-2.427 12.264 12.264-18.312 2.426 12.549 12.549 18.312-2.427 2.521 2.522a5.27 5.27 0 0 0 7.47 0l3.345-3.344a5.27 5.27 0 0 0 0-7.47l-2.522-2.522 2.427-18.312-12.549-12.549-2.426 18.312-12.264-12.264 2.427-18.311-12.55-12.55-2.426 18.313-8.41-8.41a5.27 5.27 0 0 0-7.47 0z" transform="translate(-6.862 -6.591)"/></svg>
